; generated by PrusaSlicer 2.9.3 on 2025-10-10 at 19:14:33 UTC


;
;

;
;
; 

; external perimeters extrusion width = 0.43mm
; perimeters extrusion width = 0.45mm
; infill extrusion width = 0.45mm
; solid infill extrusion width = 0.45mm
; top infill extrusion width = 0.43mm
; first layer extrusion width = 0.55mm

;TYPE:Custom
M117 Initial homing sequence. ; Home so that the probe is positioned to heat
G28

M117 Probe heating position
G0 X65 Y5 Z1 ; Move the probe to the heating position.

M117 Getting the heaters up to temp!
M104 S140 ; Set Extruder temperature, no wait
M140 S70 ; Set Heat Bed temperature
M190 S70 ; Wait for Heat Bed temperature

M117 Waiting for probe to warm!
G4 S90 ; Wait another 90s for the probe to absorb heat.

M117 Post warming re-home
G28 ; Home all axes again after warming

M117 Z-Align
G34

M117 ABL Probing
G29

M900 K0 L0 T0 ; Edit the K and L values if you have calibrated a k factor for your filament
M900 T0 S0

G1 Z2.0 F3000 ; Move Z Axis up little to prevent scratching of Heat Bed
G1 X4.1 Y10 Z0.3 F5000.0 ; Move to start position

M117 Getting the extruder up to temp
M140 S70 ; Set Heat Bed temperature
M104 S240 ; Set Extruder temperature
M109 S240 ; Wait for Extruder temperature
M190 S70 ; Wait for Heat Bed temperature

G92 E0 ; Reset Extruder
M117 Purging
G1 X4.1 Y200.0 Z0.3 F1500.0 E15 ; Draw the first line
G1 X4.4 Y200.0 Z0.3 F5000.0 ; Move to side a little
G1 X4.4 Y20 Z0.3 F1500.0 E30 ; Draw the second line
G92 E0 ; Reset Extruder
M117 Printing...
G1 X8 Y20 Z0.3 F5000.0 ; Move over to prevent blob squish
G21 ; set units to millimeters
G90 ; use absolute coordinates
M82 ; use absolute distances for extrusion
G92 E0
; Filament gcode
M107
;LAYER_CHANGE
;Z:0.2
;HEIGHT:0.2
G1 E-.6 F2400
G92 E0
G1 Z.2 F9000
G1 X109.688 Y85.948
G1 E.6 F2400
M204 S500
;TYPE:Skirt/Brim
;WIDTH:0.55
G1 F1200
G1 X111.498 Y84.42 E.69987
G1 X122.944 Y80.525 E1.20966
G1 X123.606 Y80.387 E1.23817
G1 X125.267 Y80.254 E1.30843
G1 X127.2 Y80.54 E1.39082
G1 X138.596 Y84.42 E1.89841
G1 X139.938 Y85.293 E1.96591
G1 X140.801 Y87.5 E2.06583
G1 X140.801 Y164.5 E5.31245
G1 X140.407 Y166.052 E5.37996
G1 X139.321 Y167.228 E5.44745
G1 X137.547 Y167.754 E5.52547
G1 X112.547 Y167.754 E6.57957
G1 X110.996 Y167.36 E6.64704
G1 X109.82 Y166.273 E6.71456
G1 X109.294 Y164.5 E6.79254
G1 X109.294 Y87.5 E10.03916
G1 X109.673 Y86.006 E10.10415
;WIPE_START
G1 F7200
G1 X109.688 Y85.948 E10.08518
G1 X111.09 Y84.765 E9.50415
;WIPE_END
G92 E0
G92 E0
G1 X122.259 Y87.812 F9000
G1 E.6 F2400
;TYPE:Perimeter
;WIDTH:0.549999
G1 F1200
G1 X122.452 Y87.258 E.62474
G1 X122.798 Y86.711 E.65203
G1 X122.954 Y86.523 E.66233
G1 X123.337 Y86.184 E.6839
G1 X123.808 Y85.912 E.70683
G1 X124.113 Y85.777 E.72089
G1 X124.609 Y85.655 E.74243
G1 X125.303 Y85.633 E.77171
G1 X125.982 Y85.777 E.80098
G1 X126.606 Y86.08 E.83023
G1 X127.14 Y86.523 E.85948
G1 X127.552 Y87.082 E.88876
G1 X127.819 Y87.722 E.918
G1 X127.925 Y88.408 E.94727
G1 X127.863 Y89.1 E.97656
G1 X127.638 Y89.756 E1.0058
G1 X127.262 Y90.339 E1.03505
G1 X126.757 Y90.816 E1.06434
G1 X126.153 Y91.158 E1.09361
G1 X125.485 Y91.345 E1.12286
G1 X124.791 Y91.367 E1.15214
G1 X124.113 Y91.223 E1.18136
G1 X123.488 Y90.92 E1.21065
G1 X122.954 Y90.477 E1.2399
G1 X122.542 Y89.918 E1.26918
G1 X122.275 Y89.278 E1.29842
G1 X122.17 Y88.592 E1.32768
G1 X122.234 Y87.884 E1.35765
G1 X122.239 Y87.869 E1.35832
G1 X122.744 Y87.932 F9000
;TYPE:External perimeter
G1 F1200
G1 X122.926 Y87.437 E1.38056
G1 X123.215 Y86.999 E1.40269
G1 X123.593 Y86.635 E1.42482
G1 X124.044 Y86.361 E1.44707
G1 X124.234 Y86.269 E1.45597
G1 X124.731 Y86.147 E1.47755
G1 X125.303 Y86.14 E1.50167
G1 X125.861 Y86.269 E1.52582
G1 X126.371 Y86.529 E1.54996
G1 X126.804 Y86.903 E1.57408
G1 X127.135 Y87.37 E1.59821
G1 X127.345 Y87.902 E1.62233
G1 X127.421 Y88.469 E1.64645
G1 X127.36 Y89.038 E1.67058
G1 X127.164 Y89.576 E1.69472
G1 X126.845 Y90.051 E1.71885
G1 X126.421 Y90.436 E1.743
G1 X125.918 Y90.709 E1.76713
G1 X125.364 Y90.853 E1.79126
G1 X124.791 Y90.86 E1.81542
G1 X124.234 Y90.731 E1.83953
G1 X123.724 Y90.471 E1.86367
G1 X123.291 Y90.097 E1.88779
G1 X122.959 Y89.63 E1.91195
G1 X122.75 Y89.098 E1.93605
G1 X122.673 Y88.531 E1.96018
G1 X122.732 Y87.99 E1.98313
;WIPE_START
G1 F7200
G1 X122.744 Y87.932 E1.96437
G1 X122.926 Y87.437 E1.79736
G1 X123.215 Y86.999 E1.63119
G1 X123.593 Y86.635 E1.46501
G1 X123.814 Y86.501 E1.38313
;WIPE_END
G92 E0
G1 X120.672 Y88.223 F9000
G1 E.6 F2400
;TYPE:Perimeter
G1 F1200
G1 X120.792 Y88.141 E.60613
G1 X120.959 Y87.858 E.61999
G1 X121.312 Y86.78 E.66782
G1 X121.798 Y85.979 E.70732
G1 X122.454 Y85.309 E.74686
G1 X123.246 Y84.804 E.78646
G1 X124.1 Y84.499 E.8247
G1 X125.031 Y84.389 E.86423
G1 X125.996 Y84.5 E.90519
G1 X126.847 Y84.803 E.94328
G1 X127.664 Y85.33 E.98427
G1 X128.296 Y85.979 E1.02247
G1 X128.782 Y86.78 E1.06197
G1 X129.135 Y87.858 E1.1098
G1 X129.303 Y88.141 E1.12368
G1 X129.574 Y88.327 E1.13754
G1 X129.858 Y88.382 E1.14974
G1 X136.665 Y88.382 E1.43675
G1 X136.665 Y93.674 E1.65988
G1 X136.665 Y163.618 E4.60898
G1 X113.429 Y163.618 E5.5887
G1 X113.429 Y88.382 E8.76093
G1 X120.236 Y88.382 E9.04794
G1 X120.52 Y88.327 E9.06014
G1 X120.623 Y88.257 E9.06539
G1 X120.383 Y87.816 F9000
;TYPE:External perimeter
G1 F1200
G1 X120.477 Y87.7 E9.07169
G1 X120.849 Y86.567 E9.12197
G1 X121.395 Y85.666 E9.16639
G1 X122.132 Y84.913 E9.21082
G1 X123.022 Y84.345 E9.25534
G1 X123.983 Y84.003 E9.29835
G1 X125.03 Y83.878 E9.34281
G1 X126.112 Y84.003 E9.38873
G1 X127.072 Y84.345 E9.4317
G1 X127.988 Y84.935 E9.47764
G1 X128.699 Y85.666 E9.52064
G1 X129.246 Y86.567 E9.56508
G1 X129.617 Y87.7 E9.61535
G1 X129.733 Y87.842 E9.62308
G1 X129.858 Y87.875 E9.62853
G1 X137.172 Y87.875 E9.93692
G1 X137.172 Y93.674 E10.18143
G1 X137.172 Y164.125 E13.15191
G1 X112.922 Y164.125 E14.17438
G1 X112.922 Y87.875 E17.38937
G1 X120.236 Y87.875 E17.69776
G1 X120.337 Y87.849 E17.70216
;WIPE_START
G1 F7200
G1 X120.383 Y87.816 E17.68423
G1 X120.477 Y87.7 E17.63695
G1 X120.849 Y86.567 E17.25932
G1 X121.106 Y86.143 E17.10216
;WIPE_END
G92 E0
G1 X135.483 Y88.534 F9000
G1 E.6 F2400
;TYPE:Solid infill
;WIDTH:0.552268
G1 F1200
G1 X136.285 Y89.336 E.64804
G1 X136.285 Y90.056 E.67853
G1 X134.991 Y88.762 E.75603
G1 X134.271 Y88.762 E.78652
G1 X136.285 Y90.777 E.90718
G1 X136.285 Y91.497 E.93767
G1 X133.55 Y88.762 E1.10148
G1 X132.83 Y88.762 E1.13197
G1 X136.285 Y92.217 E1.33891
G1 X136.285 Y92.938 E1.36945
G1 X132.11 Y88.762 E1.61954
G1 X131.389 Y88.762 E1.65008
G1 X136.285 Y93.658 E1.94333
G1 X136.285 Y94.378 E1.97382
G1 X130.441 Y88.534 E2.32385
;WIPE_START
G1 F7200
G1 X131.781 Y89.874 E1.72385
;WIPE_END
G92 E0
G1 X125.819 Y84.633 F9000
G1 E.6 F2400
G1 F1200
G1 X128.584 Y87.398 E.76561
G1 X128.776 Y87.982 E.79165
G1 X128.863 Y88.181 E.80085
G1 X129.026 Y88.403 E.81251
G1 X129.29 Y88.612 E.82677
G1 X129.431 Y88.68 E.8334
G1 X129.554 Y88.722 E.8389
G1 X129.949 Y88.762 E.85571
G1 X136.285 Y95.098 E1.23521
G1 X136.285 Y95.819 E1.26575
G1 X128.22 Y87.754 E1.74881
G1 X128.193 Y87.64 E1.75377
G1 X127.988 Y87.095 E1.77843
G1 X127.903 Y86.922 E1.78659
G1 X127.458 Y86.3 E1.81898
G1 X126.871 Y85.794 E1.8518
G1 X126.457 Y85.572 E1.8717
G1 X126.082 Y85.41 E1.889
G1 X125.813 Y85.347 E1.9007
G1 X125.019 Y84.553 E1.94826
G1 X125.231 Y85.485 F9000
G1 F1200
G1 X124.576 Y84.83 E1.98749
G1 X124.186 Y84.872 E2.0041
G1 X123.973 Y84.948 E2.01368
G1 X124.352 Y85.326 E2.03635
G1 X124.014 Y85.41 E2.0511
G1 X123.797 Y85.492 E2.06092
G1 X123.442 Y85.137 E2.08218
G1 X123.414 Y85.147 E2.08344
G1 X122.998 Y85.413 E2.10435
G1 X123.324 Y85.74 E2.12391
G1 X123.224 Y85.793 E2.1287
G1 X122.92 Y86.055 E2.1457
G1 X122.584 Y85.72 E2.16579
G1 X122.228 Y86.084 E2.18735
G1 X122.557 Y86.413 E2.20706
G1 X122.256 Y86.832 E2.22891
G1 X121.926 Y86.502 E2.24868
G1 X121.656 Y86.953 E2.27094
G1 X122.022 Y87.318 E2.29283
G1 X121.917 Y87.594 E2.30534
G1 X121.852 Y87.869 E2.31731
G1 X121.478 Y87.495 E2.33971
G1 X121.296 Y88.034 E2.3638
G1 X122.042 Y88.779 E2.40845
;WIPE_START
G1 F7200
G1 X121.296 Y88.034 E2.07459
G1 X121.478 Y87.495 E1.89444
G1 X121.67 Y87.687 E1.80845
;WIPE_END
G92 E0
G1 X128.067 Y88.322 F9000
G1 E.6 F2400
G1 F1200
G1 X136.285 Y96.539 E1.09219
G1 X136.285 Y97.259 E1.12268
G1 X128.228 Y89.202 E1.60526
G1 X128.177 Y89.406 E1.61417
G1 X128.048 Y89.743 E1.62945
G1 X136.285 Y97.98 E2.12281
G1 X136.285 Y98.7 E2.1533
G1 X127.799 Y90.214 E2.66157
G1 X127.506 Y90.641 E2.6835
G1 X136.285 Y99.42 E3.20932
G1 X136.285 Y100.141 E3.23986
G1 X127.132 Y90.988 E3.78808
G1 X127.005 Y91.105 E3.79539
G1 X126.715 Y91.291 E3.80998
G1 X136.285 Y100.861 E4.38318
G1 X136.285 Y101.581 E4.41367
G1 X126.234 Y91.531 E5.01565
G1 X126.16 Y91.568 E5.01915
G1 X125.665 Y91.682 E5.04066
G1 X136.285 Y102.302 E5.67675
G1 X136.285 Y103.022 E5.70724
G1 X124.78 Y91.517 E6.39634
;WIPE_START
G1 F7200
G1 X126.12 Y92.857 E5.79634
;WIPE_END
G92 E0
G1 X120.838 Y88.295 F9000
G1 E.6 F2400
G1 F1200
G1 X121.908 Y89.366 E.66412
G1 X122.136 Y89.974 E.69162
G1 X122.568 Y90.621 E.72457
G1 X123.09 Y91.105 E.75472
G1 X123.305 Y91.253 E.76577
G1 X123.771 Y91.498 E.78807
G1 X124.015 Y91.591 E.79913
G1 X124.167 Y91.625 E.80573
G1 X136.285 Y103.742 E1.53151
G1 X136.285 Y104.463 E1.56205
G1 X120.543 Y88.721 E2.50492
G1 X120.245 Y88.762 E2.51766
G1 X119.864 Y88.762 E2.5338
G1 X136.285 Y105.183 E3.51734
G1 X136.285 Y105.903 E3.54783
G1 X119.144 Y88.762 E4.5745
G1 X118.424 Y88.762 E4.60499
G1 X136.285 Y106.624 E5.67481
G1 X136.285 Y107.344 E5.7053
G1 X117.703 Y88.762 E6.81828
G1 X116.983 Y88.762 E6.84877
G1 X136.285 Y108.064 E8.00487
G1 X136.285 Y108.785 E8.03541
G1 X116.263 Y88.762 E9.23467
G1 X115.542 Y88.762 E9.26521
G1 X136.285 Y109.505 E10.50762
G1 X136.285 Y110.225 E10.53811
G1 X114.822 Y88.762 E11.82365
G1 X114.102 Y88.762 E11.85414
G1 X136.285 Y110.946 E13.18283
G1 X136.285 Y111.666 E13.21332
G1 X113.81 Y89.191 E14.55947
G1 X113.81 Y89.911 E14.58996
G1 X136.285 Y112.386 E15.93611
G1 X136.285 Y113.107 E15.96665
G1 X113.81 Y90.631 E17.31283
G1 X113.81 Y91.352 E17.34337
G1 X136.285 Y113.827 E18.68952
G1 X136.285 Y114.547 E18.72001
G1 X113.81 Y92.072 E20.06616
G1 X113.81 Y92.792 E20.09665
G1 X136.285 Y115.268 E21.44283
G1 X136.285 Y115.988 E21.47332
G1 X113.81 Y93.513 E22.81947
G1 X113.81 Y94.233 E22.84996
G1 X136.285 Y116.708 E24.19611
G1 X136.285 Y117.429 E24.22665
G1 X113.81 Y94.953 E25.57283
G1 X113.81 Y95.674 E25.60337
G1 X136.285 Y118.149 E26.94952
G1 X136.285 Y118.869 E26.98001
G1 X113.81 Y96.394 E28.32616
G1 X113.81 Y97.114 E28.35665
G1 X136.285 Y119.59 E29.70283
G1 X136.285 Y120.31 E29.73332
G1 X113.81 Y97.835 E31.07947
G1 X113.81 Y98.555 E31.10996
G1 X136.285 Y121.03 E32.45611
G1 X136.285 Y121.751 E32.48665
G1 X113.81 Y99.275 E33.83283
G1 X113.81 Y99.996 E33.86337
G1 X136.285 Y122.471 E35.20952
G1 X136.285 Y123.191 E35.24001
G1 X113.81 Y100.716 E36.58616
G1 X113.81 Y101.436 E36.61665
G1 X136.285 Y123.912 E37.96283
G1 X136.285 Y124.632 E37.99332
G1 X113.81 Y102.157 E39.33947
G1 X113.81 Y102.877 E39.36996
G1 X136.285 Y125.352 E40.71611
G1 X136.285 Y126.073 E40.74665
G1 X113.81 Y103.597 E42.09283
G1 X113.81 Y104.318 E42.12337
G1 X136.285 Y126.793 E43.46952
G1 X136.285 Y127.513 E43.50001
G1 X113.81 Y105.038 E44.84616
G1 X113.81 Y105.758 E44.87665
G1 X136.285 Y128.234 E46.22283
G1 X136.285 Y128.954 E46.25332
G1 X113.81 Y106.479 E47.59947
G1 X113.81 Y107.199 E47.62996
G1 X136.285 Y129.674 E48.97611
G1 X136.285 Y130.395 E49.00665
G1 X113.81 Y107.919 E50.35283
G1 X113.81 Y108.64 E50.38337
G1 X136.285 Y131.115 E51.72952
G1 X136.285 Y131.835 E51.76001
G1 X113.81 Y109.36 E53.10616
G1 X113.81 Y110.08 E53.13665
G1 X136.285 Y132.555 E54.4828
G1 X136.285 Y133.276 E54.51334
G1 X113.81 Y110.801 E55.85949
G1 X113.81 Y111.521 E55.88998
G1 X136.285 Y133.996 E57.23613
G1 X136.285 Y134.716 E57.26662
G1 X113.81 Y112.241 E58.61277
G1 X113.81 Y112.962 E58.64331
G1 X136.285 Y135.437 E59.98946
G1 X136.285 Y136.157 E60.01995
G1 X113.81 Y113.682 E61.3661
G1 X113.81 Y114.402 E61.39659
G1 X136.285 Y136.877 E62.74274
G1 X136.285 Y137.598 E62.77328
G1 X113.81 Y115.123 E64.11943
G1 X113.81 Y115.843 E64.14992
G1 X136.285 Y138.318 E65.49607
G1 X136.285 Y139.038 E65.52656
G1 X113.81 Y116.563 E66.87271
G1 X113.81 Y117.284 E66.90325
G1 X136.285 Y139.759 E68.2494
G1 X136.285 Y140.479 E68.27989
G1 X113.81 Y118.004 E69.62604
G1 X113.81 Y118.724 E69.65653
G1 X136.285 Y141.199 E71.00268
G1 X136.285 Y141.92 E71.03322
G1 X113.81 Y119.445 E72.37937
G1 X113.81 Y120.165 E72.40986
G1 X136.285 Y142.64 E73.75601
G1 X136.285 Y143.36 E73.7865
G1 X113.81 Y120.885 E75.13265
G1 X113.81 Y121.605 E75.16314
G1 X136.285 Y144.081 E76.50932
G1 X136.285 Y144.801 E76.53981
G1 X113.81 Y122.326 E77.88596
G1 X113.81 Y123.046 E77.91645
G1 X136.285 Y145.521 E79.2626
G1 X136.285 Y146.242 E79.29314
G1 X113.81 Y123.766 E80.63932
G1 X113.81 Y124.487 E80.66986
G1 X136.285 Y146.962 E82.01601
G1 X136.285 Y147.682 E82.0465
G1 X113.81 Y125.207 E83.39265
G1 X113.81 Y125.927 E83.42314
G1 X136.285 Y148.403 E84.76932
G1 X136.285 Y149.123 E84.79981
G1 X113.81 Y126.648 E86.14596
G1 X113.81 Y127.368 E86.17645
G1 X136.285 Y149.843 E87.5226
G1 X136.285 Y150.564 E87.55314
G1 X113.81 Y128.088 E88.89932
G1 X113.81 Y128.809 E88.92986
G1 X136.285 Y151.284 E90.27601
G1 X136.285 Y152.004 E90.3065
G1 X113.81 Y129.529 E91.65265
G1 X113.81 Y130.249 E91.68314
G1 X136.285 Y152.725 E93.02932
G1 X136.285 Y153.445 E93.05981
G1 X113.81 Y130.97 E94.40596
G1 X113.81 Y131.69 E94.43645
G1 X136.285 Y154.165 E95.7826
G1 X136.285 Y154.886 E95.81314
G1 X113.81 Y132.41 E97.15932
G1 X113.81 Y133.131 E97.18986
G1 X136.285 Y155.606 E98.53601
G1 X136.285 Y156.326 E98.5665
G1 X113.81 Y133.851 E99.91265
G1 X113.81 Y134.571 E99.94314
G1 X136.285 Y157.047 E101.28932
G1 X136.285 Y157.767 E101.31981
G1 X113.81 Y135.292 E102.66596
G1 X113.81 Y136.012 E102.69645
G1 X136.285 Y158.487 E104.0426
G1 X136.285 Y159.208 E104.07314
G1 X113.81 Y136.732 E105.41932
G1 X113.81 Y137.453 E105.44986
G1 X136.285 Y159.928 E106.79601
G1 X136.285 Y160.648 E106.8265
G1 X113.81 Y138.173 E108.17265
G1 X113.81 Y138.893 E108.20314
G1 X136.285 Y161.369 E109.54932
G1 X136.285 Y162.089 E109.57981
G1 X113.81 Y139.614 E110.92596
G1 X113.81 Y140.334 E110.95645
G1 X136.285 Y162.809 E112.3026
G1 X136.285 Y163.238 E112.32077
G1 X135.993 Y163.238 E112.33314
G1 X113.81 Y141.054 E113.66183
G1 X113.81 Y141.775 E113.69237
G1 X135.273 Y163.238 E114.97791
G1 X134.552 Y163.238 E115.00845
G1 X113.81 Y142.495 E116.25083
G1 X113.81 Y143.215 E116.28132
G1 X133.832 Y163.238 E117.48058
G1 X133.112 Y163.238 E117.51107
G1 X113.81 Y143.936 E118.66717
G1 X113.81 Y144.656 E118.69766
G1 X132.391 Y163.238 E119.81061
G1 X131.671 Y163.238 E119.8411
G1 X113.81 Y145.376 E120.91092
G1 X113.81 Y146.097 E120.94146
G1 X130.951 Y163.238 E121.96813
G1 X130.23 Y163.238 E121.99867
G1 X113.81 Y146.817 E122.98218
G1 X113.81 Y147.537 E123.01267
G1 X129.51 Y163.238 E123.95306
G1 X128.79 Y163.238 E123.98355
G1 X113.81 Y148.258 E124.88078
G1 X113.81 Y148.978 E124.91127
G1 X128.069 Y163.238 E125.76535
G1 X127.349 Y163.238 E125.79584
G1 X113.81 Y149.698 E126.60679
G1 X113.81 Y150.419 E126.63733
G1 X126.629 Y163.238 E127.40513
G1 X125.908 Y163.238 E127.43567
G1 X113.81 Y151.139 E128.16031
G1 X113.81 Y151.859 E128.1908
G1 X125.188 Y163.238 E128.87232
G1 X124.468 Y163.238 E128.90281
G1 X113.81 Y152.58 E129.54118
G1 X113.81 Y153.3 E129.57167
G1 X123.747 Y163.238 E130.16688
G1 X123.027 Y163.238 E130.19737
G1 X113.81 Y154.02 E130.74946
G1 X113.81 Y154.741 E130.78
G1 X122.307 Y163.238 E131.28893
G1 X121.586 Y163.238 E131.31947
G1 X113.81 Y155.461 E131.78525
G1 X113.81 Y156.181 E131.81574
G1 X120.866 Y163.238 E132.23839
G1 X120.146 Y163.238 E132.26888
G1 X113.81 Y156.902 E132.64838
G1 X113.81 Y157.622 E132.67887
G1 X119.425 Y163.238 E133.01521
G1 X118.705 Y163.238 E133.0457
G1 X113.81 Y158.342 E133.33892
G1 X113.81 Y159.062 E133.36941
G1 X117.985 Y163.238 E133.6195
G1 X117.264 Y163.238 E133.65004
G1 X113.81 Y159.783 E133.85695
G1 X113.81 Y160.503 E133.88744
G1 X116.544 Y163.238 E134.05122
G1 X115.824 Y163.238 E134.08171
G1 X113.81 Y161.223 E134.20237
G1 X113.81 Y161.944 E134.23291
G1 X115.103 Y163.238 E134.31038
