; generated by PrusaSlicer 2.9.3 on 2025-10-09 at 20:00:11 UTC


;
;

;
;
; 

; external perimeters extrusion width = 0.43mm
; perimeters extrusion width = 0.45mm
; infill extrusion width = 0.45mm
; solid infill extrusion width = 0.45mm
; top infill extrusion width = 0.43mm
; support material extrusion width = 0.38mm
; first layer extrusion width = 0.55mm

;TYPE:Custom
M117 Initial homing sequence. ; Home so that the probe is positioned to heat
G28

M117 Probe heating position
G0 X65 Y5 Z1 ; Move the probe to the heating position.

M117 Getting the heaters up to temp!
M104 S140 ; Set Extruder temperature, no wait
M140 S70 ; Set Heat Bed temperature
M190 S70 ; Wait for Heat Bed temperature

M117 Waiting for probe to warm!
G4 S90 ; Wait another 90s for the probe to absorb heat.

M117 Post warming re-home
G28 ; Home all axes again after warming

M117 Z-Align
G34

M117 ABL Probing
G29

M900 K0 L0 T0 ; Edit the K and L values if you have calibrated a k factor for your filament
M900 T0 S0

G1 Z2.0 F3000 ; Move Z Axis up little to prevent scratching of Heat Bed
G1 X4.1 Y10 Z0.3 F5000.0 ; Move to start position

M117 Getting the extruder up to temp
M140 S70 ; Set Heat Bed temperature
M104 S240 ; Set Extruder temperature
M109 S240 ; Wait for Extruder temperature
M190 S70 ; Wait for Heat Bed temperature

G92 E0 ; Reset Extruder
M117 Purging
G1 X4.1 Y200.0 Z0.3 F1500.0 E15 ; Draw the first line
G1 X4.4 Y200.0 Z0.3 F5000.0 ; Move to side a little
G1 X4.4 Y20 Z0.3 F1500.0 E30 ; Draw the second line
G92 E0 ; Reset Extruder
M117 Printing...
G1 X8 Y20 Z0.3 F5000.0 ; Move over to prevent blob squish
G21 ; set units to millimeters
G90 ; use absolute coordinates
M82 ; use absolute distances for extrusion
G92 E0
; Filament gcode
M107
;LAYER_CHANGE
;Z:0.2
;HEIGHT:0.2
G1 E-.6 F2400
G92 E0
G1 Z.2 F9000
G1 X110.253 Y85.757
G1 E.6 F2400
M204 S500
;TYPE:Skirt/Brim
;WIDTH:0.55
G1 F1200
G1 X111.908 Y84.435 E.68931
G1 X122.848 Y80.54 E1.17895
G1 X123.559 Y80.387 E1.20961
G1 X125.22 Y80.254 E1.27987
G1 X127.152 Y80.54 E1.36222
G1 X138.092 Y84.435 E1.85186
G1 X139.422 Y85.327 E1.91938
G1 X140.246 Y87.278 E2.00868
G1 X145.162 Y159.278 E5.05154
G1 X145.169 Y169.961 E5.50198
G1 X144.776 Y171.513 E5.56948
G1 X143.689 Y172.689 E5.637
G1 X141.916 Y173.214 E5.71496
G1 X108.084 Y173.214 E7.14145
G1 X106.532 Y172.821 E7.20895
G1 X105.356 Y171.734 E7.27647
G1 X104.831 Y169.961 E7.35443
G1 X104.831 Y159.5 E7.79551
G1 X109.754 Y87.278 E10.84773
G1 X110.234 Y85.814 E10.91269
;WIPE_START
G1 F7200
G1 X110.253 Y85.757 E10.89366
G1 X111.686 Y84.612 E10.31269
;WIPE_END
G92 E0
G92 E0
G1 X112.467 Y164.721 F9000
G1 E.6 F2400
;TYPE:Support material
G1 F1200
G1 X112.779 Y165.033 E.6186
G1 X137.221 Y165.033 E1.64917
G1 X137.533 Y164.721 E1.66777
G1 X137.533 Y159.5 E1.88791
G1 X141.916 Y159.5 E2.07271
G1 X141.916 Y169.961 E2.51379
G1 X108.084 Y169.961 E3.94028
G1 X108.084 Y159.5 E4.38136
G1 X112.467 Y159.5 E4.56616
G1 X112.467 Y164.645 E4.78309
;WIPE_START
G1 F7200
G1 X112.467 Y162.75 E4.18309
;WIPE_END
G92 E0
G1 X141.339 Y169.733 F9000
G1 E.6 F2400
G1 F1200
G1 X141.339 Y159.956 E1.01224
G1 X140.776 Y159.956 E1.03598
G1 X140.776 Y169.505 E1.4386
G1 X140.212 Y169.505 E1.46238
G1 X140.212 Y159.956 E1.865
G1 X139.649 Y159.956 E1.88874
G1 X139.649 Y169.505 E2.29136
G1 X139.086 Y169.505 E2.3151
G1 X139.086 Y159.956 E2.71772
G1 X138.522 Y159.956 E2.7415
G1 X138.522 Y169.505 E3.14412
G1 X137.959 Y169.505 E3.16786
G1 X137.959 Y164.941 E3.3603
G1 X137.395 Y165.489 E3.39346
G1 X137.395 Y169.505 E3.56279
G1 X136.832 Y169.505 E3.58653
G1 X136.832 Y165.489 E3.75586
G1 X136.268 Y165.489 E3.77964
G1 X136.268 Y169.505 E3.94897
G1 X135.705 Y169.505 E3.97271
G1 X135.705 Y165.489 E4.14204
G1 X135.142 Y165.489 E4.16578
G1 X135.142 Y169.505 E4.33511
G1 X134.578 Y169.505 E4.35889
G1 X134.578 Y165.489 E4.52822
G1 X134.015 Y165.489 E4.55196
G1 X134.015 Y169.505 E4.72129
G1 X133.451 Y169.505 E4.74507
G1 X133.451 Y165.489 E4.9144
G1 X132.888 Y165.489 E4.93814
G1 X132.888 Y169.505 E5.10747
G1 X132.324 Y169.505 E5.13125
G1 X132.324 Y165.489 E5.30058
G1 X131.761 Y165.489 E5.32432
G1 X131.761 Y169.505 E5.49365
G1 X131.198 Y169.505 E5.51739
G1 X131.198 Y165.489 E5.68672
G1 X130.634 Y165.489 E5.7105
G1 X130.634 Y169.505 E5.87983
G1 X130.071 Y169.505 E5.90357
G1 X130.071 Y165.489 E6.0729
G1 X129.507 Y165.489 E6.09668
G1 X129.507 Y169.505 E6.26601
G1 X128.944 Y169.505 E6.28975
G1 X128.944 Y165.489 E6.45908
G1 X128.381 Y165.489 E6.48282
G1 X128.381 Y169.505 E6.65215
G1 X127.817 Y169.505 E6.67593
G1 X127.817 Y165.489 E6.84526
G1 X127.254 Y165.489 E6.869
G1 X127.254 Y169.505 E7.03833
G1 X126.69 Y169.505 E7.06211
G1 X126.69 Y165.489 E7.23144
G1 X126.127 Y165.489 E7.25518
G1 X126.127 Y169.505 E7.42451
G1 X125.563 Y169.505 E7.44829
G1 X125.563 Y165.489 E7.61762
G1 X125 Y165.489 E7.64136
G1 X125 Y169.505 E7.81069
G1 X124.437 Y169.505 E7.83443
G1 X124.437 Y165.489 E8.00376
G1 X123.873 Y165.489 E8.02754
G1 X123.873 Y169.505 E8.19687
G1 X123.31 Y169.505 E8.22061
G1 X123.31 Y165.489 E8.38994
G1 X122.746 Y165.489 E8.41372
G1 X122.746 Y169.505 E8.58305
G1 X122.183 Y169.505 E8.60679
G1 X122.183 Y165.489 E8.77612
G1 X121.619 Y165.489 E8.7999
G1 X121.619 Y169.505 E8.96923
G1 X121.056 Y169.505 E8.99297
G1 X121.056 Y165.489 E9.1623
G1 X120.493 Y165.489 E9.18604
G1 X120.493 Y169.505 E9.35537
G1 X119.929 Y169.505 E9.37915
G1 X119.929 Y165.489 E9.54848
G1 X119.366 Y165.489 E9.57222
G1 X119.366 Y169.505 E9.74155
G1 X118.802 Y169.505 E9.76533
G1 X118.802 Y165.489 E9.93466
G1 X118.239 Y165.489 E9.9584
G1 X118.239 Y169.505 E10.12773
G1 X117.676 Y169.505 E10.15147
G1 X117.676 Y165.489 E10.3208
G1 X117.112 Y165.489 E10.34458
G1 X117.112 Y169.505 E10.51391
G1 X116.549 Y169.505 E10.53765
G1 X116.549 Y165.489 E10.70698
G1 X115.985 Y165.489 E10.73076
G1 X115.985 Y169.505 E10.90009
G1 X115.422 Y169.505 E10.92383
G1 X115.422 Y165.489 E11.09316
G1 X114.858 Y165.489 E11.11694
G1 X114.858 Y169.505 E11.28627
G1 X114.295 Y169.505 E11.31001
G1 X114.295 Y165.489 E11.47934
G1 X113.732 Y165.489 E11.50308
G1 X113.732 Y169.505 E11.67241
G1 X113.168 Y169.505 E11.69619
G1 X113.168 Y165.489 E11.86552
G1 X112.605 Y165.489 E11.88926
G1 X112.605 Y169.505 E12.05859
G1 X112.041 Y169.505 E12.08237
G1 X112.011 Y159.956 E12.48499
G1 X111.478 Y159.956 E12.50746
G1 X111.478 Y169.505 E12.91008
G1 X110.914 Y169.505 E12.93386
G1 X110.914 Y159.956 E13.33648
G1 X110.351 Y159.956 E13.36022
G1 X110.351 Y169.505 E13.76284
G1 X109.788 Y169.505 E13.78658
G1 X109.788 Y159.956 E14.1892
G1 X109.224 Y159.956 E14.21298
G1 X109.224 Y169.505 E14.6156
G1 X108.661 Y169.505 E14.63934
G1 X108.661 Y159.728 E15.05158
;WIPE_START
G1 F7200
G1 X108.661 Y161.623 E14.45158
;WIPE_END
G92 E0
G1 X125.696 Y86.664 F9000
G1 E.6 F2400
G1 F1200
G1 X126.115 Y86.884 E.61995
G1 X126.469 Y87.198 E.6399
G1 X126.738 Y87.588 E.65988
G1 X126.906 Y88.03 E.67982
G1 X126.963 Y88.5 E.69978
G1 X126.906 Y88.97 E.71974
G1 X126.738 Y89.412 E.73968
G1 X126.469 Y89.802 E.75966
G1 X126.115 Y90.116 E.77961
G1 X125.696 Y90.336 E.79956
G1 X125.237 Y90.449 E.81949
G1 X124.763 Y90.449 E.83948
G1 X124.304 Y90.336 E.85941
G1 X123.885 Y90.116 E.87936
G1 X123.531 Y89.802 E.89931
G1 X123.262 Y89.412 E.91929
G1 X123.094 Y88.97 E.93923
G1 X123.037 Y88.5 E.95919
G1 X123.094 Y88.03 E.97915
G1 X123.262 Y87.588 E.99909
G1 X123.531 Y87.198 E1.01907
G1 X123.885 Y86.884 E1.03902
G1 X124.304 Y86.664 E1.05897
G1 X124.763 Y86.551 E1.0789
G1 X125.237 Y86.551 E1.09889
G1 X125.622 Y86.646 E1.11561
G1 X126.127 Y89.8 F9000
G1 F1200
G1 X126.127 Y87.505 E1.21238
G1 X125.563 Y87.11 E1.24141
G1 X125.563 Y89.89 E1.35863
G1 X125 Y89.992 E1.38275
G1 X125 Y87.008 E1.50857
G1 X124.437 Y87.11 E1.53269
G1 X124.437 Y89.89 E1.64991
G1 X123.875 Y89.497 E1.67883
G1 X123.873 Y87.2 E1.77568
;WIPE_START
G1 F7200
G1 X123.874 Y89.095 E1.17568
;WIPE_END
G92 E0
G1 X122.436 Y86.229 F9000
G1 E.6 F2400
;TYPE:Perimeter
;WIDTH:0.666446
G1 F1200
G1 X122.507 Y86.147 E.60562
;WIDTH:0.655672
G1 X123.01 Y85.71 E.63957
;WIDTH:0.668471
G1 X123.509 Y85.417 E.66967
G1 X123.876 Y85.26 E.69043
;WIDTH:0.651461
G1 X124.49 Y85.109 E.72242
;WIDTH:0.668871
G1 X124.985 Y85.077 E.74824
G1 X125.51 Y85.109 E.77562
;WIDTH:0.651368
G1 X126.124 Y85.26 E.80761
;WIDTH:0.668275
G1 X126.489 Y85.416 E.82825
G1 X126.928 Y85.662 E.85442
;WIDTH:0.651156
G1 X127.501 Y86.154 E.89262
;WIDTH:0.666484
G1 X127.697 Y86.384 E.90829
G1 X127.99 Y86.821 E.93557
;WIDTH:0.66483
G1 X128.107 Y87.045 E.94864
G1 X128.305 Y87.585 E.97838
;WIDTH:0.652671
G1 X128.352 Y87.775 E.9883
G1 X128.361 Y87.986 E.99901
;WIDTH:0.618447
G1 X128.369 Y88.197 E1.00911
;WIDTH:0.584223
G1 X128.377 Y88.408 E1.01861
;WIDTH:0.549999
G1 X128.301 Y89.219 E1.05295
G1 X128.046 Y89.955 E1.08579
G1 X127.771 Y90.4 E1.10785
G1 X127.467 Y90.808 E1.1293
G1 X126.994 Y91.227 E1.15594
G1 X126.283 Y91.625 E1.1903
G1 X125.498 Y91.842 E1.22464
G1 X124.684 Y91.864 E1.25897
G1 X123.888 Y91.69 E1.29332
G1 X123.157 Y91.332 E1.32764
G1 X122.533 Y90.808 E1.362
G1 X122.19 Y90.351 E1.38609
G1 X121.963 Y89.979 E1.40446
G1 X121.735 Y89.353 E1.43255
G1 X121.623 Y88.592 E1.46498
;WIDTH:0.58463
G1 X121.652 Y88.024 E1.4906
;WIDTH:0.62205
G1 X121.649 Y87.89 E1.49705
;WIDTH:0.65947
G1 X121.647 Y87.756 E1.50392
;WIDTH:0.664832
G1 X121.893 Y87.045 E1.54283
;WIDTH:0.666446
G1 X122.302 Y86.385 E1.58309
G1 X122.397 Y86.274 E1.59066
G1 X122.853 Y86.597 F9000
;TYPE:External perimeter
;WIDTH:0.549999
G1 F1200
G1 X122.872 Y86.569 E1.59209
G1 X123.376 Y86.133 E1.62019
G1 X123.952 Y85.824 E1.64775
G1 X124.623 Y85.651 E1.67697
G1 X125.316 Y85.643 E1.70619
G1 X125.991 Y85.802 E1.73543
G1 X126.607 Y86.117 E1.7646
G1 X127.131 Y86.571 E1.79383
G1 X127.531 Y87.137 E1.82305
G1 X127.783 Y87.783 E1.85229
G1 X127.874 Y88.469 E1.88147
G1 X127.798 Y89.158 E1.9107
G1 X127.572 Y89.775 E1.93841
G1 X127.173 Y90.38 E1.96897
G1 X126.658 Y90.848 E1.99831
G1 X126.048 Y91.176 E2.02751
G1 X125.377 Y91.349 E2.05673
G1 X124.684 Y91.357 E2.08595
G1 X124.009 Y91.198 E2.11519
G1 X123.393 Y90.883 E2.14436
G1 X122.869 Y90.429 E2.17359
G1 X122.44 Y89.805 E2.20552
G1 X122.211 Y89.179 E2.23363
G1 X122.126 Y88.531 E2.26119
G1 X122.202 Y87.842 E2.29042
G1 X122.421 Y87.245 E2.31723
G1 X122.819 Y86.647 E2.34752
;WIPE_START
G1 F7200
G1 X122.853 Y86.597 E2.32837
G1 X122.872 Y86.569 E2.31765
G1 X123.376 Y86.133 E2.10662
G1 X123.952 Y85.824 E1.89963
G1 X124.417 Y85.704 E1.74752
;WIPE_END
G92 E0
G1 X120.625 Y88.231 F9000
G1 E.6 F2400
;TYPE:Perimeter
G1 F1200
G1 X120.671 Y88.21 E.60213
;WIDTH:0.58463
G1 X120.928 Y87.864 E.62154
;WIDTH:0.618121
G1 X121.025 Y87.623 E.63397
;WIDTH:0.651611
G1 X121.121 Y87.382 E.6471
;WIDTH:0.664832
G1 X121.306 Y86.838 E.67681
G1 X121.5 Y86.49 E.69741
;WIDTH:0.666446
G1 X121.779 Y86.046 E.7246
G1 X122.025 Y85.771 E.74373
;WIDTH:0.670554
G1 X122.42 Y85.382 E.77266
G1 X122.645 Y85.219 E.78716
;WIDTH:0.668471
G1 X123.195 Y84.876 E.82088
G1 X123.448 Y84.77 E.83515
;WIDTH:0.668967
G1 X124.033 Y84.569 E.86735
G1 X124.381 Y84.511 E.88572
;WIDTH:0.668866
G1 X124.948 Y84.453 E.91538
G1 X125.351 Y84.481 E.93641
G1 X125.969 Y84.57 E.96891
G1 X126.739 Y84.844 E1.01145
;WIDTH:0.668275
G1 X127.171 Y85.101 E1.03759
;WIDTH:0.667582
G1 X127.604 Y85.401 E1.06495
G1 X128.22 Y86.045 E1.11124
;WIDTH:0.666484
G1 X128.694 Y86.838 E1.15914
;WIDTH:0.66483
G1 X128.879 Y87.382 E1.18885
;WIDTH:0.65161
G1 X128.975 Y87.623 E1.20198
;WIDTH:0.618119
G1 X129.072 Y87.864 E1.21441
;WIDTH:0.584628
G1 X129.329 Y88.21 E1.23382
;WIDTH:0.549999
G1 X129.603 Y88.353 E1.24685
G1 X129.811 Y88.382 E1.2557
G1 X136.118 Y88.382 E1.52163
G1 X136.118 Y92.943 E1.71394
G1 X136.118 Y163.618 E4.69387
G1 X113.882 Y163.618 E5.63142
G1 X113.882 Y88.382 E8.80365
G1 X120.316 Y88.371 E9.07493
G1 X120.57 Y88.256 E9.08669
G1 X120.329 Y87.825 F9000
;TYPE:External perimeter
G1 F1200
G1 X120.35 Y87.818 E9.08762
G1 X120.43 Y87.7 E9.09363
G1 X120.801 Y86.567 E9.1439
G1 X121.348 Y85.666 E9.18834
G1 X122.085 Y84.913 E9.23277
G1 X122.974 Y84.345 E9.27725
G1 X123.936 Y84.003 E9.3203
G1 X124.983 Y83.878 E9.36476
G1 X126.064 Y84.003 E9.41064
G1 X127.025 Y84.345 E9.45365
G1 X127.94 Y84.935 E9.49955
G1 X128.652 Y85.666 E9.54258
G1 X129.199 Y86.567 E9.58702
G1 X129.57 Y87.7 E9.63729
G1 X129.65 Y87.818 E9.6433
G1 X129.811 Y87.875 E9.6505
G1 X136.625 Y87.875 E9.9378
G1 X136.625 Y92.943 E10.15149
G1 X136.625 Y164.125 E13.15279
G1 X113.375 Y164.125 E14.1331
G1 X113.375 Y87.875 E17.34809
G1 X120.189 Y87.875 E17.63539
G1 X120.272 Y87.845 E17.63911
;WIPE_START
G1 F7200
G1 X120.329 Y87.825 E17.61998
G1 X120.35 Y87.818 E17.61297
G1 X120.43 Y87.7 E17.56783
G1 X120.801 Y86.567 E17.1903
G1 X121.049 Y86.159 E17.03911
;WIPE_END
G92 E0
G1 X135.966 Y89.561 F9000
G1 E.6 F2400
;TYPE:Solid infill
;WIDTH:0.550802
G1 F1200
G1 X135.166 Y88.761 E.64778
G1 X134.447 Y88.76 E.67814
G1 X135.738 Y90.051 E.75524
G1 X135.738 Y90.769 E.78556
G1 X133.727 Y88.759 E.90563
G1 X133.008 Y88.758 E.93599
G1 X135.738 Y91.488 E1.09903
G1 X135.738 Y92.206 E1.12935
G1 X132.288 Y88.757 E1.33536
G1 X131.569 Y88.756 E1.36572
G1 X135.738 Y92.924 E1.61468
G1 X135.738 Y93.642 E1.645
G1 X130.85 Y88.754 E1.93693
G1 X130.13 Y88.753 E1.96734
G1 X135.738 Y94.361 E2.30227
G1 X135.738 Y95.079 E2.33259
G1 X129.251 Y88.592 E2.72001
G1 X129.091 Y88.509 E2.72762
G1 X128.9 Y88.309 E2.7393
G1 X128.783 Y88.132 E2.74826
G1 X128.747 Y88.143 E2.74985
G1 X128.756 Y88.629 E2.77038
G1 X128.734 Y88.794 E2.77741
G1 X135.738 Y95.797 E3.19568
G1 X135.738 Y96.516 E3.22604
G1 X128.647 Y89.425 E3.64954
G1 X128.453 Y89.95 E3.67318
G1 X135.738 Y97.234 E4.10823
G1 X135.738 Y97.952 E4.13855
G1 X128.212 Y90.426 E4.58803
G1 X127.923 Y90.856 E4.60991
G1 X135.738 Y98.67 E5.07662
G1 X135.738 Y99.389 E5.10698
G1 X127.572 Y91.223 E5.59468
G1 X127.186 Y91.555 E5.61618
G1 X135.738 Y100.107 E6.12693
G1 X135.738 Y100.825 E6.15725
G1 X126.73 Y91.817 E6.69524
G1 X126.33 Y92.021 E6.7142
G1 X126.239 Y92.045 E6.71817
G1 X135.738 Y101.543 E7.28545
G1 X135.738 Y102.262 E7.31581
G1 X125.667 Y92.191 E7.91728
G1 X125.401 Y92.241 E7.92871
G1 X124.995 Y92.237 E7.94586
G1 X135.738 Y102.98 E8.58746
G1 X135.738 Y103.698 E8.61778
G1 X123.878 Y91.838 E9.3261
;WIPE_START
G1 F7200
G1 X125.218 Y93.178 E8.7261
;WIPE_END
G92 E0
G1 X121.487 Y88.73 F9000
G1 E.6 F2400
G1 F1200
G1 X121.084 Y88.326 E.6241
G1 X120.91 Y88.508 E.63473
G1 X120.674 Y88.634 E.64603
G1 X121.681 Y89.642 E.7062
;WIPE_START
G1 F7200
G1 X120.674 Y88.634 E.25501
G1 X120.91 Y88.508 E.17029
G1 X121.05 Y88.362 E.1062
;WIPE_END
G92 E0
G1 X119.856 Y88.534 F9000
G1 E.6 F2400
G1 F1200
G1 X135.738 Y104.416 E1.54852
G1 X135.738 Y105.135 E1.57888
G1 X119.365 Y88.762 E2.55673
G1 X118.647 Y88.762 E2.58705
G1 X135.738 Y105.853 E3.60778
G1 X135.738 Y106.571 E3.6381
G1 X117.929 Y88.762 E4.70171
G1 X117.211 Y88.762 E4.73203
G1 X135.738 Y107.289 E5.83852
G1 X135.738 Y108.008 E5.86888
G1 X116.492 Y88.762 E7.01831
G1 X115.774 Y88.762 E7.04863
G1 X135.738 Y108.726 E8.24094
G1 X135.738 Y109.444 E8.27126
G1 X115.056 Y88.762 E9.50645
G1 X114.338 Y88.762 E9.53677
G1 X135.738 Y110.162 E10.81484
G1 X135.738 Y110.881 E10.8452
G1 X114.262 Y89.405 E12.12781
G1 X114.262 Y90.124 E12.15817
G1 X135.738 Y111.599 E13.44075
G1 X135.738 Y112.317 E13.47107
G1 X114.262 Y90.842 E14.75365
G1 X114.262 Y91.56 E14.78397
G1 X135.738 Y113.035 E16.06655
G1 X135.738 Y113.754 E16.09691
G1 X114.262 Y92.278 E17.37952
G1 X114.262 Y92.997 E17.40988
G1 X135.738 Y114.472 E18.69246
G1 X135.738 Y115.19 E18.72278
G1 X114.262 Y93.715 E20.00536
G1 X114.262 Y94.433 E20.03568
G1 X135.738 Y115.908 E21.31826
G1 X135.738 Y116.627 E21.34862
G1 X114.262 Y95.151 E22.63123
G1 X114.262 Y95.87 E22.66159
G1 X135.738 Y117.345 E23.94417
G1 X135.738 Y118.063 E23.97449
G1 X114.262 Y96.588 E25.25707
G1 X114.262 Y97.306 E25.28739
G1 X135.738 Y118.781 E26.56997
G1 X135.738 Y119.5 E26.60033
G1 X114.262 Y98.024 E27.88294
G1 X114.262 Y98.743 E27.9133
G1 X135.738 Y120.218 E29.19588
G1 X135.738 Y120.936 E29.2262
G1 X114.262 Y99.461 E30.50878
G1 X114.262 Y100.179 E30.5391
G1 X135.738 Y121.654 E31.82168
G1 X135.738 Y122.373 E31.85204
G1 X114.262 Y100.897 E33.13465
G1 X114.262 Y101.616 E33.16501
G1 X135.738 Y123.091 E34.44759
G1 X135.738 Y123.809 E34.47791
