; generated by PrusaSlicer 2.9.3 on 2025-10-08 at 23:07:48 UTC


;
;

;
;
; 

; external perimeters extrusion width = 0.43mm
; perimeters extrusion width = 0.45mm
; infill extrusion width = 0.45mm
; solid infill extrusion width = 0.45mm
; top infill extrusion width = 0.43mm
; support material extrusion width = 0.38mm
; first layer extrusion width = 0.55mm

;TYPE:Custom
M117 Initial homing sequence. ; Home so that the probe is positioned to heat
G28

M117 Probe heating position
G0 X65 Y5 Z1 ; Move the probe to the heating position.

M117 Getting the heaters up to temp!
M104 S140 ; Set Extruder temperature, no wait
M140 S70 ; Set Heat Bed temperature
M190 S70 ; Wait for Heat Bed temperature

M117 Waiting for probe to warm!
G4 S90 ; Wait another 90s for the probe to absorb heat.

M117 Post warming re-home
G28 ; Home all axes again after warming

M117 Z-Align
G34

M117 ABL Probing
G29

M900 K0 L0 T0 ; Edit the K and L values if you have calibrated a k factor for your filament
M900 T0 S0

G1 Z2.0 F3000 ; Move Z Axis up little to prevent scratching of Heat Bed
G1 X4.1 Y10 Z0.3 F5000.0 ; Move to start position

M117 Getting the extruder up to temp
M140 S70 ; Set Heat Bed temperature
M104 S240 ; Set Extruder temperature
M109 S240 ; Wait for Extruder temperature
M190 S70 ; Wait for Heat Bed temperature

G92 E0 ; Reset Extruder
M117 Purging
G1 X4.1 Y200.0 Z0.3 F1500.0 E15 ; Draw the first line
G1 X4.4 Y200.0 Z0.3 F5000.0 ; Move to side a little
G1 X4.4 Y20 Z0.3 F1500.0 E30 ; Draw the second line
G92 E0 ; Reset Extruder
M117 Printing...
G1 X8 Y20 Z0.3 F5000.0 ; Move over to prevent blob squish
G21 ; set units to millimeters
G90 ; use absolute coordinates
M82 ; use absolute distances for extrusion
G92 E0
; Filament gcode
M107
;LAYER_CHANGE
;Z:0.2
;HEIGHT:0.2
G1 E-.6 F2400
G92 E0
G1 Z.2 F9000
G1 X110.253 Y85.757
G1 E.6 F2400
M204 S500
;TYPE:Skirt/Brim
;WIDTH:0.55
G1 F1200
G1 X111.908 Y84.435 E.68931
G1 X122.845 Y80.54 E1.17883
G1 X123.562 Y80.386 E1.20975
G1 X125.221 Y80.254 E1.27992
G1 X127.155 Y80.54 E1.36235
G1 X138.092 Y84.435 E1.85187
G1 X139.422 Y85.327 E1.91939
G1 X140.246 Y87.278 E2.00869
G1 X145.162 Y159.278 E5.05155
G1 X145.169 Y169.961 E5.50199
G1 X144.776 Y171.513 E5.56949
G1 X143.689 Y172.689 E5.63701
G1 X141.916 Y173.214 E5.71497
G1 X108.084 Y173.214 E7.14146
G1 X106.532 Y172.821 E7.20896
G1 X105.356 Y171.734 E7.27648
G1 X104.831 Y169.961 E7.35444
G1 X104.831 Y159.5 E7.79552
G1 X109.754 Y87.278 E10.84774
G1 X110.234 Y85.814 E10.9127
;WIPE_START
G1 F7200
G1 X110.253 Y85.757 E10.89367
G1 X111.686 Y84.612 E10.3127
;WIPE_END
G92 E0
G92 E0
G1 X112.467 Y164.721 F9000
G1 E.6 F2400
;TYPE:Support material
G1 F1200
G1 X112.779 Y165.033 E.6186
G1 X137.221 Y165.033 E1.64917
G1 X137.533 Y164.721 E1.66777
G1 X137.533 Y159.5 E1.88791
G1 X141.916 Y159.5 E2.07271
G1 X141.916 Y169.961 E2.51379
G1 X108.084 Y169.961 E3.94028
G1 X108.084 Y159.5 E4.38136
G1 X112.467 Y159.5 E4.56616
G1 X112.467 Y164.645 E4.78309
;WIPE_START
G1 F7200
G1 X112.467 Y162.75 E4.18309
;WIPE_END
G92 E0
G1 X141.339 Y169.733 F9000
G1 E.6 F2400
G1 F1200
G1 X141.339 Y159.956 E1.01224
G1 X140.776 Y159.956 E1.03598
G1 X140.776 Y169.505 E1.4386
G1 X140.212 Y169.505 E1.46238
G1 X140.212 Y159.956 E1.865
G1 X139.649 Y159.956 E1.88874
G1 X139.649 Y169.505 E2.29136
G1 X139.086 Y169.505 E2.3151
G1 X139.086 Y159.956 E2.71772
G1 X138.522 Y159.956 E2.7415
G1 X138.522 Y169.505 E3.14412
G1 X137.959 Y169.505 E3.16786
G1 X137.959 Y164.941 E3.3603
G1 X137.395 Y165.489 E3.39346
G1 X137.395 Y169.505 E3.56279
G1 X136.832 Y169.505 E3.58653
G1 X136.832 Y165.489 E3.75586
G1 X136.268 Y165.489 E3.77964
G1 X136.268 Y169.505 E3.94897
G1 X135.705 Y169.505 E3.97271
G1 X135.705 Y165.489 E4.14204
G1 X135.142 Y165.489 E4.16578
G1 X135.142 Y169.505 E4.33511
G1 X134.578 Y169.505 E4.35889
G1 X134.578 Y165.489 E4.52822
G1 X134.015 Y165.489 E4.55196
G1 X134.015 Y169.505 E4.72129
G1 X133.451 Y169.505 E4.74507
G1 X133.451 Y165.489 E4.9144
G1 X132.888 Y165.489 E4.93814
G1 X132.888 Y169.505 E5.10747
G1 X132.324 Y169.505 E5.13125
G1 X132.324 Y165.489 E5.30058
G1 X131.761 Y165.489 E5.32432
G1 X131.761 Y169.505 E5.49365
G1 X131.198 Y169.505 E5.51739
G1 X131.198 Y165.489 E5.68672
G1 X130.634 Y165.489 E5.7105
G1 X130.634 Y169.505 E5.87983
G1 X130.071 Y169.505 E5.90357
G1 X130.071 Y165.489 E6.0729
G1 X129.507 Y165.489 E6.09668
G1 X129.507 Y169.505 E6.26601
G1 X128.944 Y169.505 E6.28975
G1 X128.944 Y165.489 E6.45908
G1 X128.381 Y165.489 E6.48282
G1 X128.381 Y169.505 E6.65215
G1 X127.817 Y169.505 E6.67593
G1 X127.817 Y165.489 E6.84526
G1 X127.254 Y165.489 E6.869
G1 X127.254 Y169.505 E7.03833
G1 X126.69 Y169.505 E7.06211
G1 X126.69 Y165.489 E7.23144
G1 X126.127 Y165.489 E7.25518
G1 X126.127 Y169.505 E7.42451
G1 X125.563 Y169.505 E7.44829
G1 X125.563 Y165.489 E7.61762
G1 X125 Y165.489 E7.64136
G1 X125 Y169.505 E7.81069
G1 X124.437 Y169.505 E7.83443
G1 X124.437 Y165.489 E8.00376
G1 X123.873 Y165.489 E8.02754
G1 X123.873 Y169.505 E8.19687
G1 X123.31 Y169.505 E8.22061
G1 X123.31 Y165.489 E8.38994
G1 X122.746 Y165.489 E8.41372
G1 X122.746 Y169.505 E8.58305
G1 X122.183 Y169.505 E8.60679
G1 X122.183 Y165.489 E8.77612
G1 X121.619 Y165.489 E8.7999
G1 X121.619 Y169.505 E8.96923
G1 X121.056 Y169.505 E8.99297
G1 X121.056 Y165.489 E9.1623
G1 X120.493 Y165.489 E9.18604
G1 X120.493 Y169.505 E9.35537
G1 X119.929 Y169.505 E9.37915
G1 X119.929 Y165.489 E9.54848
G1 X119.366 Y165.489 E9.57222
G1 X119.366 Y169.505 E9.74155
G1 X118.802 Y169.505 E9.76533
G1 X118.802 Y165.489 E9.93466
G1 X118.239 Y165.489 E9.9584
G1 X118.239 Y169.505 E10.12773
G1 X117.676 Y169.505 E10.15147
G1 X117.676 Y165.489 E10.3208
G1 X117.112 Y165.489 E10.34458
G1 X117.112 Y169.505 E10.51391
G1 X116.549 Y169.505 E10.53765
G1 X116.549 Y165.489 E10.70698
G1 X115.985 Y165.489 E10.73076
G1 X115.985 Y169.505 E10.90009
G1 X115.422 Y169.505 E10.92383
G1 X115.422 Y165.489 E11.09316
G1 X114.858 Y165.489 E11.11694
G1 X114.858 Y169.505 E11.28627
G1 X114.295 Y169.505 E11.31001
G1 X114.295 Y165.489 E11.47934
G1 X113.732 Y165.489 E11.50308
G1 X113.732 Y169.505 E11.67241
G1 X113.168 Y169.505 E11.69619
G1 X113.168 Y165.489 E11.86552
G1 X112.605 Y165.489 E11.88926
G1 X112.605 Y169.505 E12.05859
G1 X112.041 Y169.505 E12.08237
G1 X112.011 Y159.956 E12.48499
G1 X111.478 Y159.956 E12.50746
G1 X111.478 Y169.505 E12.91008
G1 X110.914 Y169.505 E12.93386
G1 X110.914 Y159.956 E13.33648
G1 X110.351 Y159.956 E13.36022
G1 X110.351 Y169.505 E13.76284
G1 X109.788 Y169.505 E13.78658
G1 X109.788 Y159.956 E14.1892
G1 X109.224 Y159.956 E14.21298
G1 X109.224 Y169.505 E14.6156
G1 X108.661 Y169.505 E14.63934
G1 X108.661 Y159.728 E15.05158
;WIPE_START
G1 F7200
G1 X108.661 Y161.623 E14.45158
;WIPE_END
G92 E0
G1 X125.696 Y86.664 F9000
G1 E.6 F2400
G1 F1200
G1 X126.115 Y86.884 E.61995
G1 X126.469 Y87.198 E.6399
G1 X126.738 Y87.588 E.65988
G1 X126.906 Y88.03 E.67982
G1 X126.963 Y88.5 E.69978
G1 X126.906 Y88.97 E.71974
G1 X126.738 Y89.412 E.73968
G1 X126.469 Y89.802 E.75966
G1 X126.115 Y90.116 E.77961
G1 X125.696 Y90.336 E.79956
G1 X125.237 Y90.449 E.81949
G1 X124.763 Y90.449 E.83948
G1 X124.304 Y90.336 E.85941
G1 X123.885 Y90.116 E.87936
G1 X123.531 Y89.802 E.89931
G1 X123.262 Y89.412 E.91929
G1 X123.094 Y88.97 E.93923
G1 X123.037 Y88.5 E.95919
G1 X123.094 Y88.03 E.97915
G1 X123.262 Y87.588 E.99909
G1 X123.531 Y87.198 E1.01907
G1 X123.885 Y86.884 E1.03902
G1 X124.304 Y86.664 E1.05897
G1 X124.763 Y86.551 E1.0789
G1 X125.237 Y86.551 E1.09889
G1 X125.622 Y86.646 E1.11561
G1 X126.127 Y89.8 F9000
G1 F1200
G1 X126.127 Y87.505 E1.21238
G1 X125.563 Y87.11 E1.24141
G1 X125.563 Y89.89 E1.35863
G1 X125 Y89.992 E1.38275
G1 X125 Y87.008 E1.50857
G1 X124.437 Y87.11 E1.53269
G1 X124.437 Y89.89 E1.64991
G1 X123.875 Y89.497 E1.67883
G1 X123.873 Y87.2 E1.77568
;WIPE_START
G1 F7200
G1 X123.874 Y89.095 E1.17568
;WIPE_END
G92 E0
G1 X122.436 Y86.228 F9000
G1 E.6 F2400
;TYPE:Perimeter
;WIDTH:0.666428
G1 F1200
G1 X122.499 Y86.154 E.60504
;WIDTH:0.65525
G1 X122.971 Y85.733 E.63724
;WIDTH:0.66845
G1 X123.509 Y85.416 E.66972
G1 X123.876 Y85.26 E.69046
;WIDTH:0.651412
G1 X124.49 Y85.109 E.72245
;WIDTH:0.668838
G1 X124.984 Y85.077 E.74821
G1 X125.51 Y85.109 E.77564
;WIDTH:0.651394
G1 X126.124 Y85.26 E.80763
;WIDTH:0.668244
G1 X126.488 Y85.415 E.8282
G1 X126.928 Y85.662 E.85444
;WIDTH:0.651178
G1 X127.501 Y86.154 E.89264
;WIDTH:0.666467
G1 X127.697 Y86.383 E.90827
G1 X127.99 Y86.821 E.93559
;WIDTH:0.664815
G1 X128.107 Y87.045 E.94866
G1 X128.305 Y87.585 E.9784
;WIDTH:0.652649
G1 X128.352 Y87.775 E.98832
G1 X128.361 Y87.986 E.99903
;WIDTH:0.618433
G1 X128.369 Y88.197 E1.00913
;WIDTH:0.584216
G1 X128.377 Y88.408 E1.01863
;WIDTH:0.549999
G1 X128.301 Y89.219 E1.05297
G1 X128.033 Y89.988 E1.08731
G1 X127.589 Y90.671 E1.12166
G1 X126.994 Y91.227 E1.156
G1 X126.283 Y91.625 E1.19036
G1 X125.498 Y91.842 E1.2247
G1 X124.684 Y91.864 E1.25903
G1 X123.888 Y91.69 E1.29338
G1 X123.157 Y91.332 E1.3277
G1 X122.533 Y90.808 E1.36206
G1 X122.19 Y90.351 E1.38615
G1 X121.967 Y89.988 E1.40411
G1 X121.743 Y89.397 E1.43076
G1 X121.623 Y88.592 E1.46508
;WIDTH:0.584601
G1 X121.652 Y88.024 E1.4907
;WIDTH:0.622031
G1 X121.649 Y87.89 E1.49715
;WIDTH:0.65946
G1 X121.647 Y87.756 E1.50402
G1 X121.683 Y87.62 E1.51123
;WIDTH:0.664816
G1 X121.893 Y87.045 E1.54288
;WIDTH:0.666428
G1 X122.302 Y86.384 E1.58318
G1 X122.397 Y86.274 E1.59072
G1 X122.852 Y86.597 F9000
;TYPE:External perimeter
;WIDTH:0.549999
G1 F1200
G1 X122.869 Y86.571 E1.59203
G1 X123.342 Y86.152 E1.61867
G1 X123.952 Y85.824 E1.64787
G1 X124.623 Y85.651 E1.67709
G1 X125.316 Y85.643 E1.70631
G1 X125.991 Y85.802 E1.73555
G1 X126.607 Y86.117 E1.76472
G1 X127.131 Y86.571 E1.79395
G1 X127.531 Y87.137 E1.82317
G1 X127.783 Y87.783 E1.85241
G1 X127.874 Y88.469 E1.88159
G1 X127.798 Y89.158 E1.91082
G1 X127.559 Y89.809 E1.94006
G1 X127.172 Y90.383 E1.96925
G1 X126.658 Y90.848 E1.99847
G1 X126.048 Y91.176 E2.02767
G1 X125.377 Y91.349 E2.05689
G1 X124.684 Y91.357 E2.08611
G1 X124.009 Y91.198 E2.11535
G1 X123.393 Y90.883 E2.14452
G1 X122.869 Y90.429 E2.17375
G1 X122.469 Y89.863 E2.20297
G1 X122.246 Y89.295 E2.2287
G1 X122.126 Y88.531 E2.26131
G1 X122.213 Y87.794 E2.2926
G1 X122.421 Y87.245 E2.31735
G1 X122.819 Y86.647 E2.34764
;WIPE_START
G1 F7200
G1 X122.852 Y86.597 E2.32867
G1 X122.869 Y86.571 E2.31883
G1 X123.342 Y86.152 E2.11873
G1 X123.952 Y85.824 E1.89941
G1 X124.416 Y85.704 E1.74764
;WIPE_END
G92 E0
G1 X120.625 Y88.23 F9000
G1 E.6 F2400
;TYPE:Perimeter
G1 F1200
G1 X120.671 Y88.21 E.60211
;WIDTH:0.584601
G1 X120.928 Y87.864 E.62152
;WIDTH:0.618101
G1 X121.025 Y87.623 E.63394
;WIDTH:0.6516
G1 X121.121 Y87.382 E.64707
;WIDTH:0.664816
G1 X121.307 Y86.838 E.6768
G1 X121.5 Y86.49 E.69738
;WIDTH:0.666428
G1 X121.779 Y86.046 E.72457
G1 X122.025 Y85.771 E.7437
;WIDTH:0.667566
G1 X122.42 Y85.38 E.77257
G1 X122.749 Y85.149 E.79345
;WIDTH:0.66845
G1 X123.196 Y84.876 E.82069
G1 X123.448 Y84.77 E.83491
;WIDTH:0.668945
G1 X124.032 Y84.57 E.86704
G1 X124.381 Y84.511 E.88546
;WIDTH:0.668837
G1 X124.947 Y84.453 E.91507
G1 X125.351 Y84.481 E.93615
G1 X125.97 Y84.57 E.9687
G1 X126.738 Y84.844 E1.01114
;WIDTH:0.668244
G1 X127.171 Y85.102 E1.03735
;WIDTH:0.66756
G1 X127.605 Y85.402 E1.06475
G1 X128.22 Y86.044 E1.11093
;WIDTH:0.666467
G1 X128.693 Y86.838 E1.15885
;WIDTH:0.664815
G1 X128.879 Y87.382 E1.18858
;WIDTH:0.651599
G1 X128.975 Y87.623 E1.20171
;WIDTH:0.6181
G1 X129.072 Y87.864 E1.21413
;WIDTH:0.5846
G1 X129.329 Y88.21 E1.23354
;WIDTH:0.549999
G1 X129.603 Y88.353 E1.24657
G1 X129.811 Y88.382 E1.25542
G1 X136.118 Y88.382 E1.52135
G1 X136.118 Y92.939 E1.71349
G1 X136.118 Y163.618 E4.69358
G1 X113.882 Y163.618 E5.63113
G1 X113.882 Y88.382 E8.80336
G1 X120.295 Y88.375 E9.07376
G1 X120.57 Y88.254 E9.08643
G1 X120.329 Y87.825 F9000
;TYPE:External perimeter
G1 F1200
G1 X120.35 Y87.818 E9.08736
G1 X120.43 Y87.7 E9.09337
G1 X120.801 Y86.566 E9.14368
G1 X121.348 Y85.666 E9.18809
G1 X122.086 Y84.912 E9.23258
G1 X122.975 Y84.345 E9.27704
G1 X123.935 Y84.003 E9.32001
G1 X124.982 Y83.878 E9.36447
G1 X126.065 Y84.003 E9.41044
G1 X127.024 Y84.345 E9.45337
G1 X127.941 Y84.936 E9.49937
G1 X128.652 Y85.666 E9.54234
G1 X129.199 Y86.566 E9.58675
G1 X129.57 Y87.7 E9.63706
G1 X129.65 Y87.818 E9.64307
G1 X129.811 Y87.875 E9.65027
G1 X136.625 Y87.875 E9.93757
G1 X136.625 Y92.939 E10.15109
G1 X136.625 Y164.125 E13.15256
G1 X113.375 Y164.125 E14.13287
G1 X113.375 Y87.875 E17.34786
G1 X120.189 Y87.875 E17.63516
G1 X120.272 Y87.845 E17.63888
;WIPE_START
G1 F7200
G1 X120.329 Y87.825 E17.61975
G1 X120.35 Y87.818 E17.61274
G1 X120.43 Y87.7 E17.5676
G1 X120.801 Y86.566 E17.18977
G1 X121.049 Y86.159 E17.03888
;WIPE_END
G92 E0
G1 X135.966 Y89.561 F9000
G1 E.6 F2400
;TYPE:Solid infill
;WIDTH:0.550802
G1 F1200
G1 X135.166 Y88.761 E.64778
G1 X134.447 Y88.76 E.67814
G1 X135.738 Y90.051 E.75524
G1 X135.738 Y90.769 E.78556
G1 X133.727 Y88.759 E.90563
G1 X133.008 Y88.758 E.93599
G1 X135.738 Y91.488 E1.09903
G1 X135.738 Y92.206 E1.12935
G1 X132.288 Y88.757 E1.33536
G1 X131.569 Y88.756 E1.36572
G1 X135.738 Y92.924 E1.61468
G1 X135.738 Y93.642 E1.645
G1 X130.85 Y88.754 E1.93693
G1 X130.13 Y88.753 E1.96734
G1 X135.738 Y94.361 E2.30227
G1 X135.738 Y95.079 E2.33259
G1 X129.251 Y88.592 E2.72001
G1 X129.091 Y88.509 E2.72762
G1 X128.899 Y88.309 E2.73933
G1 X128.783 Y88.132 E2.74827
G1 X128.747 Y88.143 E2.74986
G1 X128.756 Y88.629 E2.77039
G1 X128.734 Y88.794 E2.77742
G1 X135.738 Y95.797 E3.19569
G1 X135.738 Y96.516 E3.22605
G1 X128.647 Y89.425 E3.64955
G1 X128.453 Y89.949 E3.67315
G1 X135.738 Y97.234 E4.10823
G1 X135.738 Y97.952 E4.13855
G1 X128.217 Y90.431 E4.58773
G1 X127.923 Y90.856 E4.60955
G1 X135.738 Y98.67 E5.07626
G1 X135.738 Y99.389 E5.10662
G1 X127.572 Y91.223 E5.59432
G1 X127.186 Y91.555 E5.61582
G1 X135.738 Y100.107 E6.12657
G1 X135.738 Y100.825 E6.15689
G1 X126.73 Y91.817 E6.69488
G1 X126.33 Y92.021 E6.71384
G1 X126.239 Y92.045 E6.71781
G1 X135.738 Y101.543 E7.28509
G1 X135.738 Y102.262 E7.31545
G1 X125.667 Y92.191 E7.91692
G1 X125.401 Y92.241 E7.92835
G1 X124.995 Y92.237 E7.9455
G1 X135.738 Y102.98 E8.5871
G1 X135.738 Y103.698 E8.61742
G1 X123.878 Y91.838 E9.32574
;WIPE_START
G1 F7200
G1 X125.218 Y93.178 E8.72574
;WIPE_END
G92 E0
G1 X121.488 Y88.73 F9000
G1 E.6 F2400
G1 F1200
G1 X121.084 Y88.326 E.62413
G1 X120.909 Y88.509 E.63482
G1 X120.672 Y88.632 E.6461
G1 X121.673 Y89.633 E.70588
;WIPE_START
G1 F7200
G1 X120.672 Y88.632 E.2576
G1 X120.909 Y88.509 E.17304
G1 X121.055 Y88.356 E.10588
;WIPE_END
G92 E0
G1 X119.846 Y88.525 F9000
G1 E.6 F2400
G1 F1200
G1 X135.738 Y104.416 E1.54909
G1 X135.738 Y105.135 E1.57945
G1 X119.357 Y88.754 E2.55777
G1 X118.64 Y88.755 E2.58805
G1 X135.738 Y105.853 E3.60919
G1 X135.738 Y106.571 E3.63951
G1 X117.923 Y88.756 E4.70348
G1 X117.206 Y88.758 E4.73376
G1 X135.738 Y107.289 E5.84052
G1 X135.738 Y108.008 E5.87088
G1 X116.489 Y88.759 E7.02049
G1 X115.772 Y88.76 E7.05077
G1 X135.738 Y108.726 E8.2432
G1 X135.738 Y109.444 E8.27352
G1 X115.054 Y88.761 E9.5088
G1 X114.337 Y88.762 E9.53908
G1 X135.738 Y110.162 E10.81718
G1 X135.738 Y110.881 E10.84754
G1 X114.262 Y89.405 E12.13015
G1 X114.262 Y90.124 E12.16051
G1 X135.738 Y111.599 E13.44309
G1 X135.738 Y112.317 E13.47341
G1 X114.262 Y90.842 E14.75599
G1 X114.262 Y91.56 E14.78631
G1 X135.738 Y113.035 E16.06889
G1 X135.738 Y113.754 E16.09925
G1 X114.262 Y92.278 E17.38186
G1 X114.262 Y92.997 E17.41222
G1 X135.738 Y114.472 E18.6948
G1 X135.738 Y115.19 E18.72512
G1 X114.262 Y93.715 E20.0077
G1 X114.262 Y94.433 E20.03802
G1 X135.738 Y115.908 E21.3206
G1 X135.738 Y116.627 E21.35096
G1 X114.262 Y95.151 E22.63357
G1 X114.262 Y95.87 E22.66393
G1 X135.738 Y117.345 E23.94651
G1 X135.738 Y118.063 E23.97683
G1 X114.262 Y96.588 E25.25941
G1 X114.262 Y97.306 E25.28973
G1 X135.738 Y118.781 E26.57231
G1 X135.738 Y119.5 E26.60267
G1 X114.262 Y98.024 E27.88528
G1 X114.262 Y98.743 E27.91564
G1 X135.738 Y120.218 E29.19822
G1 X135.738 Y120.936 E29.22854
G1 X114.262 Y99.461 E30.51112
G1 X114.262 Y100.179 E30.54144
G1 X135.738 Y121.654 E31.82402
G1 X135.738 Y122.373 E31.85438
G1 X114.262 Y100.897 E33.13699
G1 X114.262 Y101.616 E33.16735
G1 X135.738 Y123.091 E34.44993
G1 X135.738 Y123.809 E34.48025
